data/playwrite-no.svg

<svg width="104.62" height="26.096" viewBox="0 0 104.62 26.096" xmlns="http://www.w3.org/2000/svg"><path transform="translate(0 19.474) scale(.014 -.014)" d="m485 368q-17-1-22 11t-1 28q5 16 14.5 26.5t25.5 11.5q63 1 125 13t116.5 35 96.5 57.5 66 81 24 104.5q0 43-18.5 74.5t-52.5 52-81.5 31-106.5 10.5q-73 0-143-16t-133-47.5-116-79.5q-16-16-31-10.5t-25 17.5q-9 11-8.5 24.5t14.5 26.5q41 42 92.5 73t109.5 51.5 120.5 31 125.5 10.5q87 0 152.5-18t108-51.5 63.5-78.5 21-100q0-74-29.5-132t-81.5-101.5-120.5-72.5-146.5-44.5-159-18.5zm-351-385q-39 0-71 16.5t-54 43.5-31 57q-6 18-1.5 30.5t21.5 18.5q18 8 29 3t21-22q12-21 26-35t31-20.5 36-6.5q37 0 62 28.5t49 104.5l187 585q5 14 17.5 20.5t34.5 6.5q23 0 33.5-7t4.5-23l-185-577q-23-70-52-120.5t-67-76.5-91-26z"/><path transform="translate(12.6 19.474) scale(.014 -.014)" d="m146-16q-64 0-85.5 44.5t4.5 123.5l260 801q7 20 16.5 26t28.5 6q31 0 39.5-9.5t1.5-29.5l-269-827q-9-29-5-44.5t23-15.5q14 0 25.5 7t22 18.5 18.5 22.5q7 9 16.5 12t25.5-7q17-10 17.5-20.5t-5.5-21.5q-13-22-32.5-42t-45-32-56.5-12z"/><path transform="translate(16.786 19.474) scale(.014 -.014)" d="m180-17q-43 0-74 19.5t-47.5 56.5-16.5 87q0 44 12.5 95t38 100 64 89.5 90.5 64.5 118 24q33 0 65-10t60-27l1 4q7 18 16.5 23.5t27.5 5.5q32 0 40-9.5t2-29.5l-119-361q-4-13-6-26t3-21.5 20-8.5q13 0 25 7t22.5 18.5 18.5 22.5q6 9 16.5 12t25.5-7q16-10 17-20.5t-5-21.5q-9-17-27.5-37.5t-44.5-34.5-59-14q-31 0-50 9t-28.5 24-12.5 34-1 39q0 3 0 5.5t1 4.5q-35-44-70-70t-66.5-36.5-56.5-10.5zm-48 174q0-31 8.5-51.5t26-31.5 41.5-11q34 0 69 22.5t70 65.5 68 102l53 162q-27 15-52 20t-50 5q-50 0-89-19t-66.5-51-45-70-25.5-75.5-8-67.5z"/><path transform="translate(25.494 19.474) scale(.014 -.014)" d="m184-16q-54 0-86 24t-38.5 68.5 12.5 104.5l99 302q7 20 16.5 26t28.5 6q31 0 39.5-9.5t1.5-29.5l-99-301q-12-38-11-63t17.5-37.5 50.5-12.5q26 0 56 15t60 43 58.5 66 51.5 85l68 212q7 20 16.5 26t28.5 6q31 0 39.5-9.5t1.5-29.5l-233-721q-29-89-64-142.5t-84-77.5-120-24q-39 0-72.5 11.5t-58 30.5-38.5 42q-9 16-10.5 29t20.5 25q20 11 30.5 10t19.5-16q19-33 49-43.5t67-10.5q47 0 78.5 16.5t54.5 53.5 43 99l108 341q-23-28-47.5-49.5t-50-36-52-22-51.5-7.5z"/><path transform="translate(34.286 19.474) scale(.014 -.014)" d="m184-19q-48 0-76 18.5t-39 48.5-9 66.5 14 73.5l96 295q7 19 16 25.5t30 6.5q31 0 39-9.5t2-28.5l-96-295q-9-27-12-55.5t9-47.5 49-19q20 0 42.5 9.5t44.5 28.5 42 46 35 63l90 276q7 19 16 25.5t29 6.5q32 0 39.5-9t1.5-28l-77-244q-9-29-18.5-59.5t-10.5-56.5 13-41.5 49-15.5q38 0 70.5 19.5t58 53 44 74 28 83 9.5 79.5q0 17-1 33t-3 31.5-6 29.5q-3 18 0.5 30t14.5 18.5 28 6.5 27.5-11.5 16.5-37.5q4-15 6.5-31.5t3.5-33.5 1-35q0-45-13-97.5t-39.5-104-64-94-86.5-68-108-25.5q-44 0-72.5 13t-42.5 35.5-18 50.5q-21-32-47.5-54.5t-58-33.5-67.5-11z"/><path transform="translate(46.298 19.474) scale(.014 -.014)" d="m56-15q-16 0-30 7t-7 26l150 465q7 20 16.5 26t28.5 6q31 0 39.5-9.5t1.5-29.5l-25-78q24 29 49.5 51.5t51 38 50.5 23.5 49 8q25 0 45-8.5t32-20.5q11-9 12-20t-10-29q-11-17-21.5-21t-21.5 3q-17 10-29.5 13.5t-26.5 3.5q-28 0-58.5-15t-62-42.5-60.5-65.5-53-85l-72-221q-4-13-14.5-19.5t-33.5-6.5z"/><path transform="translate(52.654 19.474) scale(.014 -.014)" d="m142-16q-64 0-85.5 44.5t4.5 123.5l107 331q7 20 16.5 26t28.5 6q31 0 39.5-9.5t1.5-29.5l-116-357q-9-29-4.5-44.5t22.5-15.5q13 0 25 7t22 18.5 19 22.5q6 9 16.5 12t25.5-7q16-10 17-20.5t-5-21.5q-13-22-32.5-42t-45-32-56.5-12zm133 685q-20 0-34 13t-14 38q0 27 17.5 51t54.5 24q21 0 35-12.5t14-38.5q0-27-17.5-51t-55.5-24z"/><path transform="translate(56.854 19.474) scale(.014 -.014)" d="m167-16q-54 0-76.5 25t-21 67 17.5 95l81 249h-79q-11 0-15 10t1 30q6 20 16 30t21 10h82l64 198q6 20 15.5 26t29.5 6q31 0 39.5-9.5t1.5-29.5l-62-191h126q11 0 15.5-9.5t-1.5-30.5q-5-19-15-29.5t-21-10.5h-129l-95-291q-11-35-5.5-52.5t26.5-17.5q30 0 54 20t41 41q6 9 16.5 12t25.5-7q17-10 18-20t-5-21q-12-20-34.5-44t-55-40-76.5-16z"/><path transform="translate(62.286 19.474) scale(.014 -.014)" d="m234-19q-59 0-100 25.5t-62.5 69-21.5 99.5q0 55 20 115.5t60 112.5 99.5 84 138.5 32q44 0 76.5-13.5t51-39 18.5-62.5q0-39-20.5-72t-57.5-59.5-88-45.5-113-30-133-13l20 70q50 2 95.5 9.5t83.5 20 66 29.5 43 36 15 39q0 26-15.5 38.5t-51.5 12.5q-55 0-96-25.5t-68-66-40.5-85.5-13.5-84q0-36 13-62.5t37-40.5 54-14 53 10 44 26.5 42 36.5q13 12 26.5 10t24.5-13q13-12 15-25.5t-11-26.5q-34-35-67-56.5t-67-31.5-70-10z"/><path transform="translate(73.85 19.474) scale(.014 -.014)" d="m142-17q-43 0-73 17.5t-45.5 47.5-15.5 66q0 49 21 101t55 98q11 15 23.5 16.5t28.5-7.5q18-9 22-21t-5-28q-24-38-40.5-76t-16.5-74q0-17 6-30t19-20.5 31-7.5q22 0 44 14t44.5 43.5 46.5 79 51 120.5 58 167l151 466q5 15 17.5 21.5t34.5 6.5q19 0 29.5-9t14.5-31l165-769 162 492q29 89 58.5 150t61.5 98 69 54 81 17q26 0 53-6.5t52-18.5 45-28q15-12 17.5-25t-8.5-30q-9-14-21.5-16t-29.5 8q-27 16-55.5 25t-55.5 9q-26 0-49.5-13t-45-42-42.5-76.5-44-118.5l-209-638q-4-15-16-22t-35-7q-14 0-22.5 3.5t-13.5 16.5-11 39l-162 755-105-324q-38-115-71.5-199t-65.5-141-64.5-90.5-66.5-48-72-14.5z"/><path transform="translate(90.594 19.474) scale(.014 -.014)" d="m472-19q-73 0-133 25t-102.5 72.5-65.5 114-23 149.5q0 69 15.5 143t46.5 146 76 136 104.5 113 133 77 159.5 28q73 0 132.5-25t101.5-72 65-113.5 23-148.5q0-75-16.5-151.5t-48-148.5-77.5-134.5-105-110-130.5-74-155.5-26.5zm15 85q67 0 124.5 23.5t104.5 64.5 84 95 61.5 115.5 37.5 124.5 13 123q0 70-15.5 124t-46.5 90.5-76.5 55-105.5 18.5q-65 0-122.5-23.5t-105-65-84.5-95.5-63-115-39-123.5-13-121.5q0-70 15.5-124t46.5-91 77-56 107-19z"/></svg>

<?xml version="1.0" encoding="utf-8" ?>
<svg baseProfile="tiny" height="100%" version="1.2" width="100%" xmlns="http://www.w3.org/2000/svg" xmlns:ev="http://www.w3.org/2001/xml-events" xmlns:xlink="http://www.w3.org/1999/xlink"><defs /><g><path d="M485 368Q468 367 463.0 379.0Q458 391 462 407Q467 423 476.5 433.5Q486 444 502 445Q565 446 627.0 458.0Q689 470 743.5 493.0Q798 516 840.0 550.5Q882 585 906.0 631.5Q930 678 930 736Q930 779 911.5 810.5Q893 842 859.0 862.5Q825 883 777.5 893.5Q730 904 671 904Q598 904 528.0 888.0Q458 872 395.0 840.5Q332 809 279 761Q263 745 248.0 750.5Q233 756 223 768Q214 779 214.5 792.5Q215 806 229 819Q270 861 321.5 892.0Q373 923 431.0 943.5Q489 964 551.5 974.5Q614 985 677 985Q764 985 829.5 967.0Q895 949 937.5 915.5Q980 882 1001.0 837.0Q1022 792 1022 737Q1022 663 992.5 605.0Q963 547 911.0 503.5Q859 460 790.5 431.0Q722 402 644.0 386.5Q566 371 485 368ZM134 -17Q95 -17 63.0 -0.5Q31 16 9.0 43.0Q-13 70 -22 100Q-28 118 -23.5 130.5Q-19 143 -2 149Q16 157 27.0 152.0Q38 147 48 130Q60 109 74.0 95.0Q88 81 105.0 74.5Q122 68 141 68Q178 68 203.0 96.5Q228 125 252 201L439 786Q444 800 456.5 806.5Q469 813 491 813Q514 813 524.5 806.0Q535 799 529 783L344 206Q321 136 292.0 85.5Q263 35 225.0 9.0Q187 -17 134 -17Z" transform="translate(0.0, 72) scale(0.072, -0.072)" /><path d="M146 -16Q82 -16 60.5 28.5Q39 73 65 152L325 953Q332 973 341.5 979.0Q351 985 370 985Q401 985 409.5 975.5Q418 966 411 946L142 119Q133 90 137.0 74.5Q141 59 160 59Q174 59 185.5 66.0Q197 73 207.5 84.5Q218 96 226 107Q233 116 242.5 119.0Q252 122 268 112Q285 102 285.5 91.5Q286 81 280 70Q267 48 247.5 28.0Q228 8 202.5 -4.0Q177 -16 146 -16Z" transform="translate(64.8, 72) scale(0.072, -0.072)" /><path d="M180 -17Q137 -17 106.0 2.5Q75 22 58.5 59.0Q42 96 42 146Q42 190 54.5 241.0Q67 292 92.5 341.0Q118 390 156.5 430.5Q195 471 247.0 495.0Q299 519 365 519Q398 519 430.0 509.0Q462 499 490 482L491 486Q498 504 507.5 509.5Q517 515 535 515Q567 515 575.0 505.5Q583 496 577 476L458 115Q454 102 452.0 89.0Q450 76 455.0 67.5Q460 59 475 59Q488 59 500.0 66.0Q512 73 522.5 84.5Q533 96 541 107Q547 116 557.5 119.0Q568 122 583 112Q599 102 600.0 91.5Q601 81 595 70Q586 53 567.5 32.5Q549 12 523.0 -2.0Q497 -16 464 -16Q433 -16 414.0 -7.0Q395 2 385.5 17.0Q376 32 373.0 51.0Q370 70 372 90Q372 93 372.0 95.5Q372 98 373 100Q338 56 303.0 30.0Q268 4 236.5 -6.5Q205 -17 180 -17ZM132 157Q132 126 140.5 105.5Q149 85 166.5 74.0Q184 63 208 63Q242 63 277.0 85.5Q312 108 347.0 151.0Q382 194 415 253L468 415Q441 430 416.0 435.0Q391 440 366 440Q316 440 277.0 421.0Q238 402 210.5 370.0Q183 338 165.5 300.0Q148 262 140.0 224.5Q132 187 132 157Z" transform="translate(86.328, 72) scale(0.072, -0.072)" /><path d="M184 -16Q130 -16 98.0 8.0Q66 32 59.5 76.5Q53 121 72 181L171 483Q178 503 187.5 509.0Q197 515 216 515Q247 515 255.5 505.5Q264 496 257 476L158 175Q146 137 147.0 112.0Q148 87 164.5 74.5Q181 62 215 62Q241 62 271.0 77.0Q301 92 331.0 120.0Q361 148 389.5 186.0Q418 224 441 271L509 483Q516 503 525.5 509.0Q535 515 554 515Q585 515 593.5 505.5Q602 496 595 476L362 -245Q333 -334 298.0 -387.5Q263 -441 214.0 -465.0Q165 -489 94 -489Q55 -489 21.5 -477.5Q-12 -466 -36.5 -447.0Q-61 -428 -75 -405Q-84 -389 -85.5 -376.0Q-87 -363 -65 -351Q-45 -340 -34.5 -341.0Q-24 -342 -15 -357Q4 -390 34.0 -400.5Q64 -411 101 -411Q148 -411 179.5 -394.5Q211 -378 234.0 -341.0Q257 -304 277 -242L385 99Q362 71 337.5 49.5Q313 28 287.5 13.5Q262 -1 235.5 -8.5Q209 -16 184 -16Z" transform="translate(131.112, 72) scale(0.072, -0.072)" /><path d="M184 -19Q136 -19 108.0 -0.5Q80 18 69.0 48.0Q58 78 60.0 114.5Q62 151 74 188L170 483Q177 502 186.0 508.5Q195 515 216 515Q247 515 255.0 505.5Q263 496 257 477L161 182Q152 155 149.0 126.5Q146 98 158.0 79.0Q170 60 207 60Q227 60 249.5 69.5Q272 79 294.0 98.0Q316 117 336.0 144.0Q356 171 371 207L461 483Q468 502 477.0 508.5Q486 515 506 515Q538 515 545.5 506.0Q553 497 547 478L470 234Q461 205 451.5 174.5Q442 144 441.0 118.0Q440 92 454.0 76.5Q468 61 503 61Q541 61 573.5 80.5Q606 100 631.5 133.5Q657 167 675.5 207.5Q694 248 703.5 290.5Q713 333 713 370Q713 387 712.0 403.0Q711 419 709.0 434.5Q707 450 703 464Q700 482 703.5 494.0Q707 506 718.0 512.5Q729 519 746 519Q763 519 773.5 507.5Q784 496 790 470Q794 455 796.5 438.5Q799 422 800.0 405.0Q801 388 801 370Q801 325 788.0 272.5Q775 220 748.5 168.5Q722 117 684.5 74.5Q647 32 598.0 6.5Q549 -19 490 -19Q446 -19 417.5 -6.0Q389 7 375.0 29.5Q361 52 357 80Q336 48 309.5 25.5Q283 3 251.5 -8.0Q220 -19 184 -19Z" transform="translate(176.32799999999997, 72) scale(0.072, -0.072)" /><path d="M56 -15Q40 -15 26.0 -8.0Q12 -1 19 18L169 483Q176 503 185.5 509.0Q195 515 214 515Q245 515 253.5 505.5Q262 496 255 476L230 398Q254 427 279.5 449.5Q305 472 330.5 487.5Q356 503 381.0 511.0Q406 519 430 519Q455 519 475.0 510.5Q495 502 507 490Q518 481 519.0 470.0Q520 459 509 441Q498 424 487.5 420.0Q477 416 466 423Q449 433 436.5 436.5Q424 440 410 440Q382 440 351.5 425.0Q321 410 289.5 382.5Q258 355 229.0 317.0Q200 279 176 232L104 11Q100 -2 89.5 -8.5Q79 -15 56 -15Z" transform="translate(238.10399999999998, 72) scale(0.072, -0.072)" /><path d="M142 -16Q78 -16 56.5 28.5Q35 73 61 152L168 483Q175 503 184.5 509.0Q194 515 213 515Q244 515 252.5 505.5Q261 496 254 476L138 119Q129 90 133.5 74.5Q138 59 156 59Q169 59 181.0 66.0Q193 73 203.0 84.5Q213 96 222 107Q228 116 238.5 119.0Q249 122 264 112Q280 102 281.0 91.5Q282 81 276 70Q263 48 243.5 28.0Q224 8 198.5 -4.0Q173 -16 142 -16ZM275 669Q255 669 241.0 682.0Q227 695 227 720Q227 747 244.5 771.0Q262 795 299 795Q320 795 334.0 782.5Q348 770 348 744Q348 717 330.5 693.0Q313 669 275 669Z" transform="translate(270.792, 72) scale(0.072, -0.072)" /><path d="M167 -16Q113 -16 90.5 9.0Q68 34 69.5 76.0Q71 118 87 171L168 420H89Q78 420 74.0 430.0Q70 440 75 460Q81 480 91.0 490.0Q101 500 112 500H194L258 698Q264 718 273.5 724.0Q283 730 303 730Q334 730 342.5 720.5Q351 711 344 691L282 500H408Q419 500 423.5 490.5Q428 481 422 460Q417 441 407.0 430.5Q397 420 386 420H257L162 129Q151 94 156.5 76.5Q162 59 183 59Q213 59 237.0 79.0Q261 99 278 120Q284 129 294.5 132.0Q305 135 320 125Q337 115 338.0 105.0Q339 95 333 84Q321 64 298.5 40.0Q276 16 243.5 0.0Q211 -16 167 -16Z" transform="translate(292.392, 72) scale(0.072, -0.072)" /><path d="M234 -19Q175 -19 134.0 6.5Q93 32 71.5 75.5Q50 119 50 175Q50 230 70.0 290.5Q90 351 130.0 403.0Q170 455 229.5 487.0Q289 519 368 519Q412 519 444.5 505.5Q477 492 495.5 466.5Q514 441 514 404Q514 365 493.5 332.0Q473 299 436.0 272.5Q399 246 348.0 227.0Q297 208 235.0 197.0Q173 186 102 184L122 254Q172 256 217.5 263.5Q263 271 301.0 283.5Q339 296 367.0 313.0Q395 330 410.0 349.0Q425 368 425 388Q425 414 409.5 426.5Q394 439 358 439Q303 439 262.0 413.5Q221 388 194.0 347.5Q167 307 153.5 262.0Q140 217 140 178Q140 142 153.0 115.5Q166 89 190.0 75.0Q214 61 244 61Q274 61 297.0 71.0Q320 81 341.0 97.5Q362 114 383 134Q396 146 409.5 144.0Q423 142 434 131Q447 119 449.0 105.5Q451 92 438 79Q404 44 371.0 22.5Q338 1 304.0 -9.0Q270 -19 234 -19Z" transform="translate(320.328, 72) scale(0.072, -0.072)" /><path d="M142 -17Q99 -17 69.0 0.5Q39 18 23.5 48.0Q8 78 8 114Q8 163 29.0 215.0Q50 267 84 313Q95 328 107.5 329.5Q120 331 136 322Q154 313 158.0 301.0Q162 289 153 273Q129 235 112.5 197.0Q96 159 96 123Q96 106 102.0 93.0Q108 80 121.0 72.5Q134 65 152 65Q174 65 196.0 79.0Q218 93 240.5 122.5Q263 152 287.0 201.5Q311 251 338.0 322.0Q365 393 396 489L547 955Q552 970 564.5 976.5Q577 983 599 983Q618 983 628.5 974.0Q639 965 643 943L808 174L970 666Q999 755 1028.5 816.0Q1058 877 1090.0 914.0Q1122 951 1159.0 968.0Q1196 985 1240 985Q1266 985 1293.0 978.5Q1320 972 1345.0 960.0Q1370 948 1390 932Q1405 920 1407.5 907.0Q1410 894 1399 877Q1390 863 1377.5 861.0Q1365 859 1348 869Q1321 885 1292.5 894.0Q1264 903 1237 903Q1211 903 1187.5 890.0Q1164 877 1142.5 848.0Q1121 819 1100.0 771.5Q1079 724 1056 653L847 15Q843 0 831.0 -7.0Q819 -14 796 -14Q782 -14 773.5 -10.5Q765 -7 760.0 6.0Q755 19 749 45L587 800L482 476Q444 361 410.5 277.0Q377 193 345.0 136.0Q313 79 280.5 45.5Q248 12 214.0 -2.5Q180 -17 142 -17Z" transform="translate(379.8, 72) scale(0.072, -0.072)" /><path d="M472 -19Q399 -19 339.0 6.0Q279 31 236.5 78.5Q194 126 171.0 192.5Q148 259 148 342Q148 411 163.5 485.0Q179 559 210.0 631.0Q241 703 286.0 767.0Q331 831 390.5 880.0Q450 929 523.5 957.0Q597 985 683 985Q756 985 815.5 960.0Q875 935 917.0 888.0Q959 841 982.0 774.5Q1005 708 1005 626Q1005 551 988.5 474.5Q972 398 940.5 326.0Q909 254 863.0 191.5Q817 129 758.0 81.5Q699 34 627.5 7.5Q556 -19 472 -19ZM487 66Q554 66 611.5 89.5Q669 113 716.0 154.0Q763 195 800.0 249.0Q837 303 861.5 364.5Q886 426 899.0 489.0Q912 552 912 612Q912 682 896.5 736.0Q881 790 850.0 826.5Q819 863 773.5 881.5Q728 900 668 900Q603 900 545.5 876.5Q488 853 440.5 811.5Q393 770 356.0 716.0Q319 662 293.0 601.0Q267 540 254.0 477.5Q241 415 241 356Q241 286 256.5 232.0Q272 178 303.0 141.0Q334 104 380.0 85.0Q426 66 487 66Z" transform="translate(465.91200000000003, 72) scale(0.072, -0.072)" /></g></svg>
